dist/svgs/unicons/line/horizontal-distribution-center.svg

<svg xmlns="http://www.w3.org/2000/svg" viewBox="0 0 24 24"><path d="M19 5h-1V3a1 1 0 00-2 0v2h-1a1 1 0 00-1 1v12a1 1 0 001 1h1v2a1 1 0 002 0v-2h1a1 1 0 001-1V6a1 1 0 00-1-1zm-1 12h-2V7h2zM11 4H9V3a1 1 0 00-2 0v1H5a1 1 0 00-1 1v14a1 1 0 001 1h2v1a1 1 0 002 0v-1h2a1 1 0 001-1V5a1 1 0 00-1-1zm-1 14H6V6h4z"/></svg>

<svg xmlns="http://www.w3.org/2000/svg" viewBox="0 0 24 24"><path d="M19,5H18V3a1,1,0,0,0-2,0V5H15a1,1,0,0,0-1,1V18a1,1,0,0,0,1,1h1v2a1,1,0,0,0,2,0V19h1a1,1,0,0,0,1-1V6A1,1,0,0,0,19,5ZM18,17H16V7h2ZM11,4H9V3A1,1,0,0,0,7,3V4H5A1,1,0,0,0,4,5V19a1,1,0,0,0,1,1H7v1a1,1,0,0,0,2,0V20h2a1,1,0,0,0,1-1V5A1,1,0,0,0,11,4ZM10,18H6V6h4Z"/></svg>
